assets/icons/orange/truck.svg

<svg width="668" height="519" viewBox="0 0 668 519" fill="none" xmlns="http://www.w3.org/2000/svg">
<path fill-rule="evenodd" clip-rule="evenodd" d="M228.277 419.867C228.488 449.44 211.281 476.22 184.702 487.69C158.123 499.157 127.425 493.043 106.961 472.207C86.497 451.373 80.3117 419.933 91.297 392.59C102.282 365.243 128.268 347.4 157.102 347.4C175.91 347.33 193.975 354.923 207.323 368.513C220.671 382.103 228.208 400.577 228.277 419.867Z" stroke="#EFC32C" stroke-width="50" stroke-linecap="round" stroke-linejoin="round"/>
<path fill-rule="evenodd" clip-rule="evenodd" d="M567.383 419.867C567.593 449.44 550.387 476.22 523.807 487.69C497.23 499.157 466.53 493.043 446.067 472.207C425.603 451.373 419.417 419.933 430.403 392.59C441.387 365.243 467.373 347.4 496.207 347.4C515.017 347.33 533.08 354.923 546.427 368.513C559.777 382.103 567.313 400.577 567.383 419.867Z" stroke="#EFC32C" stroke-width="50" stroke-linecap="round" stroke-linejoin="round"/>
<path d="M416.68 444.867C430.487 444.867 441.68 433.677 441.68 419.867C441.68 406.06 430.487 394.867 416.68 394.867V444.867ZM228.18 394.867C214.373 394.867 203.18 406.06 203.18 419.867C203.18 433.677 214.373 444.867 228.18 444.867V394.867ZM391.68 419.867C391.68 433.677 402.873 444.867 416.68 444.867C430.487 444.867 441.68 433.677 441.68 419.867H391.68ZM441.68 244.3C441.68 230.493 430.487 219.3 416.68 219.3C402.873 219.3 391.68 230.493 391.68 244.3H441.68ZM416.68 394.867C402.873 394.867 391.68 406.06 391.68 419.867C391.68 433.677 402.873 444.867 416.68 444.867V394.867ZM425 444.867C438.807 444.867 450 433.677 450 419.867C450 406.06 438.807 394.867 425 394.867V444.867ZM567.24 394.87C553.433 394.93 542.29 406.17 542.35 419.977C542.41 433.783 553.653 444.93 567.46 444.867L567.24 394.87ZM642.75 341.833L667.75 341.72C667.743 340.28 667.613 338.847 667.36 337.43L642.75 341.833ZM649.907 239.897C647.473 226.307 634.487 217.26 620.893 219.693C607.303 222.123 598.257 235.113 600.69 248.707L649.907 239.897ZM416.647 63.2351C402.84 63.2351 391.647 74.4278 391.647 88.2351C391.647 102.042 402.84 113.235 416.647 113.235V63.2351ZM535.957 88.2351V113.235C536.123 113.235 536.293 113.233 536.463 113.23L535.957 88.2351ZM611.323 166.268L586.333 165.556C586.283 167.268 586.41 168.98 586.713 170.665L611.323 166.268ZM600.653 248.7C603.083 262.29 616.07 271.34 629.663 268.913C643.253 266.483 652.333 253.49 649.907 239.897L600.653 248.7ZM441.613 88.2351C441.613 74.4278 430.457 63.2351 416.647 63.2351C402.84 63.2351 391.647 74.4278 391.647 88.2351H441.613ZM391.613 244.3C391.613 258.11 402.807 269.3 416.613 269.3C430.423 269.3 441.613 258.11 441.613 244.3H391.613ZM391.647 88.2351C391.647 102.042 402.84 113.235 416.647 113.235C430.457 113.235 441.613 102.042 441.613 88.2351H391.647ZM416.613 61.5684H441.617L441.613 61.3891L416.613 61.5684ZM381.123 25.6684V50.6688L381.29 50.6678L381.123 25.6684ZM60.8374 25.6684L60.6 50.6684H60.8374V25.6684ZM25.25 61.5018L0.250025 61.2781V61.5018H25.25ZM25.25 384H0.249023L0.251026 384.227L25.25 384ZM60.8374 419.833V394.833L60.6 394.837L60.8374 419.833ZM85.9277 444.833C99.7347 444.833 110.928 433.643 110.928 419.833C110.928 406.027 99.7347 394.833 85.9277 394.833V444.833ZM416.68 219.3C402.873 219.3 391.68 230.493 391.68 244.3C391.68 258.11 402.873 269.3 416.68 269.3V219.3ZM625.33 269.3C639.137 269.3 650.33 258.11 650.33 244.3C650.33 230.493 639.137 219.3 625.33 219.3V269.3ZM416.68 394.867H228.18V444.867H416.68V394.867ZM441.68 419.867V244.3H391.68V419.867H441.68ZM416.68 444.867H425V394.867H416.68V444.867ZM567.46 444.867C594.39 444.75 620.033 433.657 638.79 414.243L602.833 379.5C593.307 389.36 580.49 394.81 567.24 394.87L567.46 444.867ZM638.79 414.243C657.527 394.853 667.873 368.753 667.75 341.72L617.75 341.95C617.817 356.123 612.38 369.62 602.833 379.5L638.79 414.243ZM667.36 337.43L649.907 239.897L600.69 248.707L618.14 346.24L667.36 337.43ZM416.647 113.235H535.957V63.2351H416.647V113.235ZM536.463 113.23C549.637 112.963 562.48 118.237 571.963 128.053L607.927 93.3171C588.923 73.6408 562.74 62.6868 535.447 63.2401L536.463 113.23ZM571.963 128.053C581.467 137.893 586.733 151.438 586.333 165.556L636.313 166.98C637.093 139.603 626.907 112.969 607.927 93.3171L571.963 128.053ZM586.713 170.665L600.653 248.7L649.907 239.897L635.933 161.871L586.713 170.665ZM391.647 88.2351L391.613 244.3H441.613V88.2351H391.647ZM441.613 88.2351L441.617 61.5684H391.613L391.647 88.2351H441.613ZM441.613 61.3891C441.377 28.2258 414.817 0.443762 380.96 0.668762L381.29 50.6678C386.36 50.6341 391.567 54.9878 391.617 61.7474L441.613 61.3891ZM381.123 0.668428H60.8374V50.6684L381.123 50.6688V0.668428ZM61.075 0.66943C44.8847 0.515763 29.4267 6.97242 18.069 18.4084L53.546 53.6418C55.5367 51.6374 58.0857 50.6448 60.6 50.6684L61.075 0.66943ZM18.069 18.4084C6.73302 29.8228 0.393358 45.2564 0.250025 61.2781L50.249 61.7251C50.2774 58.5624 51.534 55.6678 53.546 53.6418L18.069 18.4084ZM0.250025 61.5018L0.249023 384H50.25V61.5018H0.250025ZM0.251026 384.227C0.394359 400.247 6.73302 415.68 18.069 427.093L53.546 391.86C51.534 389.837 50.2774 386.94 50.249 383.777L0.251026 384.227ZM18.069 427.093C29.4267 438.53 44.8847 444.987 61.075 444.833L60.6 394.837C58.0857 394.86 55.5367 393.867 53.546 391.86L18.069 427.093ZM60.8374 444.833H85.9277V394.833H60.8374V444.833ZM416.68 269.3H625.33V219.3H416.68V269.3Z" fill="#EFC32C"/>
</svg>

<svg id="Layer_1" data-name="Layer 1" xmlns="http://www.w3.org/2000/svg" viewBox="0 0 668 519"><path d="M228.28,419.87c.21,29.57-17,56.35-43.58,67.82A69.88,69.88,0,0,1,107,472.21,74.37,74.37,0,0,1,91.3,392.59c11-27.35,37-45.19,65.8-45.19a70,70,0,0,1,50.22,21.11A73.7,73.7,0,0,1,228.28,419.87Z" style="fill:none;stroke:#efc32c;stroke-linecap:round;stroke-linejoin:round;stroke-width:50px"/><path d="M567.38,419.87c.21,29.57-17,56.35-43.57,67.82a69.87,69.87,0,0,1-77.74-15.48,74.37,74.37,0,0,1-15.67-79.62c11-27.35,37-45.19,65.81-45.19a70,70,0,0,1,50.22,21.11A73.69,73.69,0,0,1,567.38,419.87Z" style="fill:none;stroke:#efc32c;stroke-linecap:round;stroke-linejoin:round;stroke-width:50px"/><path d="M416.68,444.87a25,25,0,0,0,0-50Zm-188.5-50a25,25,0,1,0,0,50Zm163.5,25a25,25,0,0,0,50,0Zm50-175.57a25,25,0,0,0-50,0Zm-25,150.57a25,25,0,1,0,0,50Zm8.32,50a25,25,0,0,0,0-50Zm142.24-50a25,25,0,1,0,.22,50Zm75.51-53,25-.11a25.73,25.73,0,0,0-.39-4.29Zm7.16-101.93a25,25,0,1,0-49.22,8.81ZM416.65,63.24a25,25,0,0,0,0,50ZM536,88.24v25h.5Zm75.36,78-25-.71a24.89,24.89,0,0,0,.38,5.1ZM600.65,248.7a25,25,0,0,0,49.26-8.8Zm-159-160.46a25,25,0,1,0-50,0Zm-50,156.06a25,25,0,1,0,50,0Zm0-156.06a25,25,0,1,0,50,0Zm25-26.67h25v-.18Zm-35.49-35.9v25h.17Zm-320.28,0-.24,25h.24ZM25.25,61.5l-25-.22v.22Zm0,322.5H.25v.23Zm35.59,35.83v-25H60.6Zm25.09,25a25,25,0,0,0,0-50ZM416.68,219.3a25,25,0,0,0,0,50Zm208.65,50a25,25,0,0,0,0-50ZM416.68,394.87H228.18v50h188.5Zm25,25V244.3h-50V419.87Zm-25,25H425v-50h-8.32Zm150.78,0a99.78,99.78,0,0,0,71.33-30.63l-36-34.74a49.78,49.78,0,0,1-35.59,15.37Zm71.33-30.63a103.71,103.71,0,0,0,29-72.52l-50,.23a53.68,53.68,0,0,1-14.92,37.55Zm28.57-76.81L649.91,239.9l-49.22,8.81,17.45,97.53ZM416.65,113.24H536v-50H416.65Zm119.81,0A48,48,0,0,1,572,128.05l36-34.73a98,98,0,0,0-72.48-30.08ZM572,128.05a51.89,51.89,0,0,1,14.37,37.51l50,1.42a101.87,101.87,0,0,0-28.38-73.66Zm14.75,42.61,13.94,78,49.26-8.8-14-78ZM391.65,88.24l0,156.06h50V88.24Zm50,0V61.57h-50l0,26.67Zm0-26.85C441.38,28.23,414.82.44,381,.67l.33,50c5.07,0,10.28,4.32,10.33,11.08ZM381.12.67H60.84v50H381.12Zm-320,0a59.8,59.8,0,0,0-43,17.74L53.55,53.64a9.79,9.79,0,0,1,7.05-3Zm-43,17.74A61.59,61.59,0,0,0,.25,61.28l50,.45a11.61,11.61,0,0,1,3.3-8.09ZM.25,61.5V384h50V61.5Zm0,322.73a61.57,61.57,0,0,0,17.82,42.86l35.48-35.23a11.59,11.59,0,0,1-3.3-8.08Zm17.82,42.86a59.76,59.76,0,0,0,43,17.74l-.48-50a9.8,9.8,0,0,1-7.05-3Zm42.77,17.74H85.93v-50H60.84ZM416.68,269.3H625.33v-50H416.68Z" style="fill:#efc32c"/></svg>
